X: 17598
T: Hoffedd Modryb Marged
R: slip jig
M: 9/8
K: Dminor
D2d AFD AFD|D2d AFD GEC|D2d AFD AFD|cde fga ecA:|
A2f fdA fdA|A2f fdA ecA|A2f fdA fdA|cde f/g/ag ecA:|

